X: 10122
M: 6/8
L: 1/8
K: D
def fed | cde edc | def fed | (f/g/)aa a2 :: f |\
fab a2g | fed a2f | gfg eag | fdd d2 :|


